sveltekit-test/static/meta/safari-pinned-tab.svg

<svg fill="none" height="57" viewBox="0 0 57 57" width="57" xmlns="http://www.w3.org/2000/svg"><g fill="#000"><path d="m19.95 24.225c1.1805 0 2.1375-.957 2.1375-2.1375 0-1.1806-.957-2.1375-2.1375-2.1375s-2.1375.9569-2.1375 2.1375c0 1.1805.957 2.1375 2.1375 2.1375z"/><path d="m37.0496 24.225c1.1805 0 2.1375-.957 2.1375-2.1375 0-1.1806-.957-2.1375-2.1375-2.1375s-2.1375.9569-2.1375 2.1375c0 1.1805.957 2.1375 2.1375 2.1375z"/><path d="m19.95 30.6375c1.1805 0 2.1375-.9569 2.1375-2.1375 0-1.1805-.957-2.1375-2.1375-2.1375s-2.1375.957-2.1375 2.1375c0 1.1806.957 2.1375 2.1375 2.1375z"/><path d="m37.0496 30.6375c1.1805 0 2.1375-.9569 2.1375-2.1375 0-1.1805-.957-2.1375-2.1375-2.1375s-2.1375.957-2.1375 2.1375c0 1.1806.957 2.1375 2.1375 2.1375z"/><path d="m28.5004 41.3251c-6.7331 0-11.2219-4.3819-11.4356-4.5956-.4275-.4275-.4275-1.0688 0-1.4963s1.0687-.4275 1.4962 0c0 0 4.0613 3.9544 9.9394 3.9544s9.9394-3.9544 9.9394-3.9544c.4275-.4275 1.0687-.4275 1.4962 0s.4275 1.0688 0 1.4963c-.2137.2137-4.7025 4.5956-11.4356 4.5956z"/><path d="m28.5 7.125c-11.7562 0-21.375 9.6188-21.375 21.375 0 11.7563 9.6188 21.375 21.375 21.375 11.7563 0 21.375-9.6187 21.375-21.375 0-11.7562-9.6187-21.375-21.375-21.375zm0 40.6125c-10.5806 0-19.2375-8.6569-19.2375-19.2375s8.6569-19.2375 19.2375-19.2375 19.2375 8.6569 19.2375 19.2375-8.6569 19.2375-19.2375 19.2375z"/></g></svg>

<svg width="57" height="57" viewBox="0 0 57 57" fill="none" xmlns="http://www.w3.org/2000/svg">
<path d="M19.95 24.225C21.1305 24.225 22.0875 23.268 22.0875 22.0875C22.0875 20.9069 21.1305 19.95 19.95 19.95C18.7695 19.95 17.8125 20.9069 17.8125 22.0875C17.8125 23.268 18.7695 24.225 19.95 24.225Z" fill="black"/>
<path d="M37.0496 24.225C38.2301 24.225 39.1871 23.268 39.1871 22.0875C39.1871 20.9069 38.2301 19.95 37.0496 19.95C35.8691 19.95 34.9121 20.9069 34.9121 22.0875C34.9121 23.268 35.8691 24.225 37.0496 24.225Z" fill="black"/>
<path d="M19.95 30.6375C21.1305 30.6375 22.0875 29.6806 22.0875 28.5C22.0875 27.3195 21.1305 26.3625 19.95 26.3625C18.7695 26.3625 17.8125 27.3195 17.8125 28.5C17.8125 29.6806 18.7695 30.6375 19.95 30.6375Z" fill="black"/>
<path d="M37.0496 30.6375C38.2301 30.6375 39.1871 29.6806 39.1871 28.5C39.1871 27.3195 38.2301 26.3625 37.0496 26.3625C35.8691 26.3625 34.9121 27.3195 34.9121 28.5C34.9121 29.6806 35.8691 30.6375 37.0496 30.6375Z" fill="black"/>
<path d="M28.5004 41.3251C21.7673 41.3251 17.2785 36.9432 17.0648 36.7295C16.6373 36.302 16.6373 35.6607 17.0648 35.2332C17.4923 34.8057 18.1335 34.8057 18.561 35.2332C18.561 35.2332 22.6223 39.1876 28.5004 39.1876C34.3785 39.1876 38.4398 35.2332 38.4398 35.2332C38.8673 34.8057 39.5085 34.8057 39.936 35.2332C40.3635 35.6607 40.3635 36.302 39.936 36.7295C39.7223 36.9432 35.2335 41.3251 28.5004 41.3251Z" fill="black"/>
<path d="M28.5 7.125C16.7438 7.125 7.125 16.7438 7.125 28.5C7.125 40.2563 16.7438 49.875 28.5 49.875C40.2563 49.875 49.875 40.2563 49.875 28.5C49.875 16.7438 40.2563 7.125 28.5 7.125ZM28.5 47.7375C17.9194 47.7375 9.2625 39.0806 9.2625 28.5C9.2625 17.9194 17.9194 9.2625 28.5 9.2625C39.0806 9.2625 47.7375 17.9194 47.7375 28.5C47.7375 39.0806 39.0806 47.7375 28.5 47.7375Z" fill="black"/>
</svg>
